X: 9703
T: Deck The Halls
R: hornpipe
M: 4/4
K: Gmajor
d>c BA|GG/A/ BG|A/B/c/A/ B>A|GF G2|
dd/c/ BA|G>A BG|A/B/c/A/ B>A|GF G2||
AA/B/ cA|BB/c/ dA|B/^A/B/c/ dg|fe d/A/B/c/|
d>c B>A|G/F/G/A/ BG|A/e/c/A/ d>G|GF G2||
~|A/e/c/A/ d>c|BA G2||

